X:1
T:J. S. Bach
T:Goldberg Variations: Variation XII
T:BWV 988
%%score { ( 1 3 ) | 2 }
L:1/8
M:3/4
K:G
V:1 treble nm="Harp"
V:3 treble 
V:2 bass 
V:1
 z G/F/ GA/B/ c/B/A/G/ | d/A/B/^c/ d/e/f/g/ a z | z g/f/ e/d/^c/B/ A/G/F/G/ | GG/4F/4E/ D z z2 | %4
 z/ d3/2- d/B/A/G/ =F/E/D/F/ | E/G/c/d/ e A2 A- | A/B/F/G/ A/G/F/e/ d/c/B/A/ | G2 z2 z2 | %8
 z/ F/G/A/ B/^c/d/f/ e/d/c/B/ | A/G/F/E/ D z z2 | z ^c- c/B/A/B/ c/d/e/f/ | gG/F/ G2- G/B/A/G/ | %12
 F/E/F/G/ F/A/G/F/ E2- | Ed ^cB Af | G2- GF E/A/G- | GF/E/ F/d^c/ d z | z G/F/ GA/B/ c/B/A/G/ | %17
 d/A/B/^c/ d/e/f/g/ a z | z g/f/ e/d/^c/B/ A/G/F/G/ | GG/4F/4E/ D z z2 | %20
 z/ d3/2- d/B/A/G/ =F/E/D/F/ | E/G/c/d/ e A2 A- | A/B/F/G/ A/G/F/e/ d/c/B/A/ | G2 z2 z2 | %24
 z/ F/G/A/ B/^c/d/f/ e/d/c/B/ | A/G/F/E/ D z z2 | z ^c- c/B/A/B/ c/d/e/f/ | gG/F/ G2- G/B/A/G/ | %28
 F/E/F/G/ F/A/G/F/ E2- | Ed ^cB Af | G2- GF E/A/G- | GF/E/ F/d^c/ d z | z D/E/ DC/B,/ A,/B,/C/D/ | %33
 z G/F/ GA/B/ c/B/A/G/ | g2- g/f/a/g/ f/g/e |{e} ff/4^e/4f/4g/4 fA z f | %36
 g/f/g/a/ g/f/e/d/ c/B/A/G/ | F6- | FF/G/ FF FG/A/ | G2 z2 E2- | E/F/G/E/ F/G/^G/A/ B/c/d/e/ | %41
 d z z4 | z/ C/D/E/ D/_E/F/G/ F/G/A/B/ | A4- A2- | AD EF G/B/A/c/ | BA Bc d/4c/4de/ | %46
 d2- d/B/c/d/ e/f/g/a/ | b/g/d/B/ G z z2 | z D/E/ DC/B,/ A,/B,/C/D/ | z G/F/ GA/B/ c/B/A/G/ | %50
 g2- g/f/a/g/ f/g/e |{e} ff/4^e/4f/4g/4 fA z f | g/f/g/a/ g/f/e/d/ c/B/A/G/ | F6- | %54
 FF/G/ FF FG/A/ | G2 z2 E2- | E/F/G/E/ F/G/^G/A/ B/c/d/e/ | d z z4 | z/ C/D/E/ D/_E/F/G/ F/G/A/B/ | %59
 A4- A2- | AD EF G/B/A/c/ | BA Bc d/4c/4de/ | d2- d/B/c/d/ e/f/g/a/ | b/g/d/B/ !fermata!G z z2 |] %64
V:2
 G,2 G,2 G,2 | F,2 F,2 F,2 | E,2 E,2 ^C, z | D,/D,,/D, z C,/B,,/ A,,C, | B,,2 B,,2 B,,2 | %5
 C,2 C,2 C,2 | D,2 D,2 D,2 | G,>B,, E,/D,/C,/E,/ D,/C,/B,,/A,,/ | B,,G,, z G,/F,/ G,E, | %9
 F,B, z B,,/^C,/ D,B,, | E,/F,/G,/F,/ E,F, E,D, | ^C,/D,/E,/D,/ C,E, C,A,, | %12
 D,2 z/ D,/E,/F,/ G,/A,/G,/F,/ | G,G,, z/ E,/F,/G,/ A,/F,/E,/D,/ | %14
 B,/B,,/E,/D,/ ^C,/A,,/D,/G,/ A,/E,/C,/A,,/ | D,/E,/D,/^C,/ D,A,, D,, z | G,2 G,2 G,2 | %17
 F,2 F,2 F,2 | E,2 E,2 ^C, z | D,/D,,/D, z C,/B,,/ A,,C, | B,,2 B,,2 B,,2 | C,2 C,2 C,2 | %22
 D,2 D,2 D,2 | G,>B,, E,/D,/C,/E,/ D,/C,/B,,/A,,/ | B,,G,, z G,/F,/ G,E, | F,B, z B,,/^C,/ D,B,, | %26
 E,/F,/G,/F,/ E,F, E,D, | ^C,/D,/E,/D,/ C,E, C,A,, | D,2 z/ D,/E,/F,/ G,/A,/G,/F,/ | %29
 G,G,, z/ E,/F,/G,/ A,/F,/E,/D,/ | B,/B,,/E,/D,/ ^C,/A,,/D,/G,/ A,/E,/C,/A,,/ | %31
 D,/E,/D,/^C,/ D,A,, D,, z | D,2 D,2 C,2 | B,,C, B,,A,, G,,A,,/B,,/ | C,B,, C,E, A,,C, | B,,2 z4 | %36
 z E, F,G, A,B, | C/D/C/B,/ C/B,/A,/G,/ A,/F,/G,/A,/ | B,/C/B,/A,/ B,/F,/^D,/F,/ B,,/D,/^C,/B,,/ | %39
 E,/C,/B,,/A,,/ G,,/B,,/E,/^D,/ E,=D, | C,C z/ E,/D,/C,/ D,/C,/B,,/A,,/ | %41
 B,,B, z/ D,/C,/B,,/ C,/B,,/A,,/^G,,/ | A,,A, z/ B,/A,/G,/ A,/G,/F,/E,/ | %43
 F,/E,/D,/^C,/ D,/=C,/B,,/A,,/ B,,/A,,/G,,/F,,/ | G,,/A,/G,/F,/ G,/F,/E,/^D,/ E,2- | %45
 E,/D,/C,/E,/ D,3 A,, | B,, z2 E, C,D, | G,,2- G,,/B,,/D,/F,/ G,2 | D,2 D,2 C,2 | %49
 B,,C, B,,A,, G,,A,,/B,,/ | C,B,, C,E, A,,C, | B,,2 z4 | z E, F,G, A,B, | %53
 C/D/C/B,/ C/B,/A,/G,/ A,/F,/G,/A,/ | B,/C/B,/A,/ B,/F,/^D,/F,/ B,,/D,/^C,/B,,/ | %55
 E,/C,/B,,/A,,/ G,,/B,,/E,/^D,/ E,=D, | C,C z/ E,/D,/C,/ D,/C,/B,,/A,,/ | %57
 B,,B, z/ D,/C,/B,,/ C,/B,,/A,,/^G,,/ | A,,A, z/ B,/A,/G,/ A,/G,/F,/E,/ | %59
 F,/E,/D,/^C,/ D,/=C,/B,,/A,,/ B,,/A,,/G,,/F,,/ | G,,/A,/G,/F,/ G,/F,/E,/^D,/ E,2- | %61
 E,/D,/C,/E,/ D,3 A,, | B,, z2 E, C,D, | G,,2- G,,/B,,/D,/F,/ !fermata!G,2 |] %64
V:3
 x6 | z[I:staff +1] D/E/ DC/B,/ A,/B,/C/D/ | G,/C/B,/A,/ G,/F,/E,/D,/ E,2 | %3
[I:staff -1] z[I:staff +1] D,/E,/ F,/G,/A,/B,/[I:staff -1] C/D/E/D/ | DE/F/ G z z2 | %5
 z/[I:staff +1] G,3/2- G,/B,/C/[I:staff -1]D/ E/F/G/E/ | F/D/[I:staff +1]A,/G,/ F, C2 C- | %7
 C/[I:staff -1]B,/E/D/ C/D/E/[I:staff +1]F,/ G,/A,/B,/C/ | D2[I:staff -1] z2 z2 | %9
 z/ E/D/^C/ B,/[I:staff +1]A,/G,/E,/ F,/G,/A,/B,/ |[I:staff -1] ^C/D/E/F/ G z z2 | %11
 z[I:staff +1] A,- A,/[I:staff -1]B,/^C/B,/ A,/[I:staff +1]G,/F,/E,/ | %12
 D,[I:staff -1]D/E/ D2- D/B,/^C/D/ | E/F/E/D/ E/^C/D/E/ F2- | FG, A,B, ^CE, | D3 E F/^C/D | x6 | %17
 z[I:staff +1] D/E/ DC/B,/ A,/B,/C/D/ | G,/C/B,/A,/ G,/F,/E,/D,/ E,2 | %19
[I:staff -1] z[I:staff +1] D,/E,/ F,/G,/A,/B,/[I:staff -1] C/D/E/D/ | DE/F/ G z z2 | %21
 z/[I:staff +1] G,3/2- G,/B,/C/[I:staff -1]D/ E/F/G/E/ | F/D/[I:staff +1]A,/G,/ F, C2 C- | %23
 C/[I:staff -1]B,/E/D/ C/D/E/[I:staff +1]F,/ G,/A,/B,/C/ | D2[I:staff -1] z2 z2 | %25
 z/ E/D/^C/ B,/[I:staff +1]A,/G,/E,/ F,/G,/A,/B,/ |[I:staff -1] ^C/D/E/F/ G z z2 | %27
 z[I:staff +1] A,- A,/[I:staff -1]B,/^C/B,/ A,/[I:staff +1]G,/F,/E,/ | %28
 D,[I:staff -1]D/E/ D2- D/B,/^C/D/ | E/F/E/D/ E/^C/D/E/ F2- | FG, A,B, ^CE, | D3 E F/^C/D | x6 | %33
[I:staff +1] D,2- D,/E,/C,/D,/ E,/D,/=F, | %34
{=F,} E,-E,/4F,/4E,/4^D,/4 E,C[I:staff -1] z[I:staff +1] E, | %35
[I:staff -1] ^D,/E,/D,/^C,/ D,/E,/F,/G,/ A,/B,/^C/^D/ | E6- | %37
[I:staff +1] E[I:staff -1]E/^D/ EE ED/^C/ | D2 z2 F2- | %39
 F/E/^D/F/ E/=D/^C/=C/ B,/[I:staff +1]A,/G,/F,/ | G,[I:staff -1] z z4 | %41
 z/ A/^G/F/ G/=F/E/D/ E/D/C/B,/ | C6- | CG FE D/B,/C/A,/ | %44
 B,C B,[I:staff +1]A, A,/4G,/4A,/4G,/4A,/4G,/4F,/ | G,2- G,/B,/A,/G,/ F,/E,/D,/C,/ | %46
 B,,/D,/G,/B,/ DG,- G,/A,/F, | G,2[I:staff -1] z4 | x6 |[I:staff +1] D,2- D,/E,/C,/D,/ E,/D,/=F, | %50
{=F,} E,-E,/4F,/4E,/4^D,/4 E,C[I:staff -1] z[I:staff +1] E, | %51
[I:staff -1] ^D,/E,/D,/^C,/ D,/E,/F,/G,/ A,/B,/^C/^D/ |[I:staff +1] E6- | %53
 E[I:staff -1]E/^D/ EE ED/^C/ | D2 z2 F2- | F/E/^D/F/ E/=D/^C/=C/ B,/[I:staff +1]A,/G,/F,/ | %56
 G,[I:staff -1] z z4 | z/ A/^G/F/ G/=F/E/D/ E/D/C/B,/ | C6- | CG FE D/B,/C/A,/ | %60
 B,C B,[I:staff +1]A, A,/4G,/4A,/4G,/4A,/4G,/4F,/ | G,2- G,/B,/A,/G,/ F,/E,/D,/C,/ | %62
 B,,/D,/G,/B,/ DG,- G,/A,/F, | G,2[I:staff -1] z4 |] %64

